X: 5466
T: Bunch Of Roses, The
R: jig
M: 6/8
K: Gdorian
GA|:B2 B Bcd|c2 A ABc|B2 G GAB|AFD D2 A|
B2 B Bcd|c2 A ABc|BAG AG^F|1 G3 GGA:|2 G3 G2 e||
|:f2 d def|g2 d cBA|GBd gab|afd d2 e|
fga gfe|fed cBA|GAB AG^F|1 G3 G2e:|2 G3 GGA||

